!!!COM: neon-trees
!!!OTL: animal
!!!RNB: hooktheoryid: BAaoGWzJoeQ
**kern	**text
*clefG2	*
*k[b-]	*
*M4/4	*
=1	=1
4r	F
4f	.
2c	.
=2	=2
8f	F
4f	.
8f	.
4c	.
[4A	.
=3	=3
4A]	C
4f	.
2c	.
=4	=4
8.f	C
8.f	.
8f	.
8.f	.
8g	.
8.a	.
=5	=5
4a	Bb
8g	.
4f	.
8.A	.
8.A	.
=6	=6
8.A	Bb
8.G	.
8A	.
4c	.
8c	.
8A	.
=7	=7
4A	F
4f	.
2c	.
=8	=8
8f	F
4f	.
8f	.
4c	.
[4A	.
=9	=9
4A]	Am
4f	.
2c	.
=10	=10
8.f	Am
8.f	.
8f	.
8.f	.
8g	.
8.a	.
=11	=11
4a	Bb
8g	.
4.f	.
4r	.
=12	=12
8.f	Bb
8.f	.
8f	.
8.f	.
8g	.
8.a	.
=13	=13
4a	C
4.g	.
8.A	.
8.A	.
=14	=14
8.A	C
8.G	.
8A	.
4c	.
8c	.
8A	.
=15	=15
1r	.
*-	*-